lib/brands/logos/sumo-logic.svg

<svg xmlns="http://www.w3.org/2000/svg" fill="none" aria-hidden="true" viewBox="0 0 233 50"><g id="Sumo Logic"><path id="Vector" fill="#000099" d="M50.6027 13.381V36.7801H45.1403V34.3008C43.9006 36.3153 41.6149 37.4775 38.2832 37.4775C32.7434 37.4775 29.9928 34.6107 29.9928 30.0393V13.381H35.9588V28.451C35.9588 30.8916 37.276 32.325 39.8329 32.325C42.8159 32.325 44.6367 30.6204 44.6367 27.4825V13.381H50.6027ZM89.343 20.4317V36.7801H83.377V22.2138C83.377 19.4245 82.2535 17.7199 79.6579 17.7199C77.0623 17.7199 75.5515 19.6569 75.5515 22.3687V36.7801H69.5854V22.2138C69.5854 19.2308 68.3458 17.7199 65.8664 17.7199C63.232 17.7199 61.7599 19.6569 61.7599 22.3687V36.7801H55.7939V13.381H61.3337V15.9766C62.6897 13.7296 64.9366 12.6062 67.9971 12.6062C70.9801 12.6062 73.227 13.8459 74.5055 16.0541C76.0938 13.7684 78.457 12.6062 81.5175 12.6062C86.515 12.6062 89.343 15.5892 89.343 20.4317ZM137.226 36.7801H131.26V4.23825H137.226V36.7801ZM201.923 36.7801H195.956V13.381H201.923V36.7801ZM195.84 9.8556H202V4.16077H195.84V9.8556ZM224.276 28.7996C221.835 31.3952 220.169 32.4025 217.922 32.4025C215.249 32.4025 213.351 30.8529 212.499 28.451V21.6327C213.39 19.192 215.288 17.6424 218 17.6424C219.976 17.6424 221.564 18.3397 224.082 20.7029L227.801 17.0226C224.818 13.7684 221.913 12.5674 218 12.5674C212.537 12.5674 208.315 15.4342 206.649 20.238V29.8456C208.276 34.6494 212.421 37.4775 217.845 37.4775C222.067 37.4775 224.973 36.0828 228.227 32.0538L224.276 28.7996ZM17.0535 22.3687C15.4264 22.0201 14.2642 21.7101 13.6056 21.5552C12.7921 21.3227 12.1722 21.0128 11.8623 20.5867V18.8046C12.4047 17.9523 13.7218 17.41 15.5426 17.41C18.0608 17.41 19.8041 17.9911 22.5547 20.1605L25.7701 16.2865C22.5159 13.5747 19.7266 12.6062 15.6976 12.6062C11.0488 12.6062 7.83332 14.5044 6.55488 17.2163V23.1048C7.56213 25.0806 9.88655 26.204 14.5354 27.2113C16.2012 27.5987 17.3247 27.8699 17.9833 27.9861C18.8356 28.2573 19.6104 28.6059 20.0365 29.2258V31.279C19.4554 32.2088 18.0608 32.7124 16.24 32.7124C14.9228 32.7511 13.6444 32.48 12.4434 31.9763C11.2812 31.5115 9.92529 30.6204 8.22072 29.2258L4.77283 33.0611C8.4919 36.354 11.6299 37.4775 16.085 37.4775C20.8501 37.4775 24.2205 35.6567 25.4989 32.7512V26.8239C24.4142 24.6157 21.8186 23.4535 17.0535 22.3687ZM104.994 12.5674C99.6092 12.5674 95.3865 15.473 93.6432 20.1218V29.9618C95.3478 34.6107 99.6092 37.5162 104.994 37.5162C110.379 37.5162 114.563 34.6107 116.268 30.0006V20.0831C114.524 15.473 110.302 12.5674 104.994 12.5674ZM110.495 28.4897C109.565 30.9691 107.59 32.4412 104.955 32.4412C102.36 32.4412 100.307 30.9691 99.3768 28.4897V21.5939C100.307 19.1145 102.282 17.6037 104.955 17.6037C107.59 17.6037 109.527 19.1145 110.457 21.5939L110.495 28.4897ZM153.187 12.5674C147.802 12.5674 143.58 15.473 141.836 20.1218V29.9618C143.58 34.6107 147.802 37.5162 153.187 37.5162C158.572 37.5162 162.756 34.6107 164.461 30.0006V20.0831C162.756 15.473 158.533 12.5674 153.187 12.5674ZM158.688 28.4897C157.758 30.9691 155.783 32.4412 153.187 32.4412C150.592 32.4412 148.538 30.9691 147.609 28.4897V21.5939C148.538 19.1145 150.514 17.6037 153.187 17.6037C155.86 17.6037 157.758 19.1145 158.688 21.5939V28.4897ZM185.225 13.381V15.9766C183.715 13.7296 181.351 12.6062 178.097 12.6062C173.681 12.6062 170.117 15.318 168.567 19.6182V29.2645C170.078 33.5647 173.642 36.2378 178.097 36.2378C181.08 36.2378 183.327 35.2305 184.915 33.2548V35.1143C184.915 38.9883 182.669 40.8091 179.182 40.8091C176.586 40.8091 174.456 40.0343 171.046 38.0198L168.141 42.32C171.434 44.5282 175.308 45.7292 179.259 45.7679C185.845 45.7679 190.688 42.2425 190.688 35.6567V13.381H185.225ZM184.489 27.5987C183.598 29.8069 181.739 31.2015 179.414 31.2015C177.09 31.2015 175.23 29.8456 174.339 27.5987V21.2065C175.23 18.9983 177.051 17.6424 179.414 17.6424C181.778 17.6424 183.598 18.9983 184.489 21.2065V27.5987Z"/></g></svg>

<svg xmlns="http://www.w3.org/2000/svg" fill="none" aria-hidden="true" viewBox="0 0 233 50"><path fill="#009" d="M50.603 13.381v23.4H45.14V34.3c-1.24 2.014-3.525 3.176-6.857 3.176-5.54 0-8.29-2.866-8.29-7.438V13.381h5.966v15.07c0 2.44 1.317 3.874 3.874 3.874 2.983 0 4.804-1.705 4.804-4.843v-14.1h5.966Zm38.74 7.05v16.35h-5.966V22.213c0-2.79-1.123-4.494-3.72-4.494-2.595 0-4.105 1.937-4.105 4.649V36.78h-5.967V22.214c0-2.983-1.24-4.494-3.719-4.494-2.634 0-4.106 1.937-4.106 4.649V36.78h-5.966V13.381h5.54v2.596c1.356-2.247 3.603-3.37 6.663-3.37 2.983 0 5.23 1.239 6.508 3.447 1.589-2.286 3.952-3.448 7.013-3.448 4.997 0 7.825 2.983 7.825 7.826Zm47.883 16.35h-5.966V4.237h5.966V36.78Zm64.697 0h-5.967v-23.4h5.967v23.4ZM195.84 9.855H202V4.16h-6.16v5.695ZM224.276 28.8c-2.441 2.595-4.107 3.603-6.354 3.603-2.673 0-4.571-1.55-5.423-3.952v-6.818c.891-2.441 2.789-3.99 5.501-3.99 1.976 0 3.564.697 6.082 3.06l3.719-3.68c-2.983-3.255-5.888-4.456-9.801-4.456-5.463 0-9.685 2.867-11.351 7.671v9.608c1.627 4.803 5.772 7.631 11.196 7.631 4.222 0 7.128-1.394 10.382-5.423l-3.951-3.254ZM17.053 22.369c-1.627-.349-2.789-.659-3.447-.814-.814-.232-1.434-.542-1.744-.968v-1.782c.543-.853 1.86-1.395 3.68-1.395 2.519 0 4.262.581 7.013 2.75l3.215-3.873c-3.254-2.712-6.043-3.68-10.072-3.68-4.65 0-7.865 1.897-9.143 4.61v5.888c1.007 1.976 3.332 3.099 7.98 4.106 1.666.388 2.79.659 3.448.775.853.271 1.627.62 2.053 1.24v2.053c-.58.93-1.975 1.433-3.796 1.433-1.317.04-2.596-.232-3.797-.736-1.162-.464-2.518-1.356-4.222-2.75L4.773 33.06c3.719 3.293 6.857 4.416 11.312 4.416 4.765 0 8.136-1.82 9.414-4.726v-5.927c-1.085-2.208-3.68-3.37-8.445-4.455Zm87.941-9.802c-5.385 0-9.608 2.906-11.35 7.555v9.84c1.704 4.649 5.965 7.554 11.35 7.554s9.569-2.905 11.274-7.515v-9.918c-1.744-4.61-5.966-7.516-11.274-7.516Zm5.501 15.923c-.93 2.48-2.905 3.951-5.54 3.951-2.595 0-4.648-1.472-5.578-3.951v-6.896c.93-2.48 2.905-3.99 5.578-3.99 2.635 0 4.572 1.51 5.502 3.99l.038 6.896Zm42.692-15.923c-5.385 0-9.607 2.906-11.351 7.555v9.84c1.744 4.649 5.966 7.554 11.351 7.554 5.385 0 9.569-2.905 11.274-7.515v-9.918c-1.705-4.61-5.928-7.516-11.274-7.516Zm5.501 15.923c-.93 2.48-2.905 3.951-5.501 3.951-2.595 0-4.649-1.472-5.578-3.951v-6.896c.929-2.48 2.905-3.99 5.578-3.99 2.673 0 4.571 1.51 5.501 3.99v6.896Zm26.537-15.109v2.596c-1.51-2.247-3.874-3.37-7.128-3.37-4.416 0-7.98 2.711-9.53 7.011v9.647c1.511 4.3 5.075 6.973 9.53 6.973 2.983 0 5.23-1.008 6.818-2.983v1.86c0 3.873-2.246 5.694-5.733 5.694-2.596 0-4.726-.775-8.136-2.79l-2.905 4.301a20.348 20.348 0 0 0 11.118 3.448c6.586 0 11.429-3.526 11.429-10.111V13.38h-5.463Zm-.736 14.218c-.891 2.208-2.75 3.602-5.075 3.602-2.324 0-4.184-1.355-5.075-3.602v-6.393c.891-2.208 2.712-3.564 5.075-3.564 2.364 0 4.184 1.356 5.075 3.564V27.6Z"/></svg>
